packages/core/src/svgs/tokens/branded/HONEY.svg

<svg width="24" height="24" viewBox="0 0 24 24" fill="none" xmlns="http://www.w3.org/2000/svg">
<path d="M16.8614 4.57419C16.8666 4.57485 16.8717 4.57398 16.8762 4.57168C16.8809 4.56937 16.8846 4.56576 16.8872 4.56129V4.53547L15.4226 2.0387V2.0129L15.4356 2H15.4485C15.9904 2.03225 16.4485 2.21935 16.8033 2.56128C16.971 2.70966 17.1904 3.03225 17.4743 3.52257C17.6798 3.86942 17.8862 4.21566 18.0936 4.56129C18.3619 4.29631 18.6953 4.10683 19.06 4.01198C19.4249 3.91712 19.8084 3.92026 20.1718 4.02107C20.535 4.12187 20.8653 4.31677 21.129 4.58607C21.3929 4.85538 21.5809 5.18956 21.6743 5.55484L21.6678 5.57418C21.6612 5.58103 21.6531 5.5863 21.6442 5.58966C21.6353 5.593 21.6257 5.59432 21.6162 5.59354C20.6571 5.59723 19.6979 5.59723 18.7388 5.59354C18.7284 5.60019 18.7207 5.61037 18.7171 5.6222C18.7137 5.63405 18.7144 5.64677 18.7194 5.65806L20.0227 7.8774C20.0295 7.88918 20.0331 7.90253 20.0331 7.91612C20.0331 7.9297 20.0295 7.94305 20.0227 7.95482L19.1001 9.52903C19.0909 9.54152 19.0865 9.55673 19.0877 9.57208C19.0889 9.58759 19.0956 9.60204 19.1066 9.61288C20.546 11.36 21.3207 13.5603 21.2936 15.8239C21.2663 18.0875 20.4391 20.2685 18.9581 21.9806C18.9324 22.0065 18.913 22.0065 18.8937 21.9806L16.1194 17.1419C16.0937 17.0943 16.0559 17.0542 16.0099 17.0258C14.7194 16.2903 13.4355 15.5033 12.1453 14.7096C10.855 13.9161 9.55172 13.1225 8.24851 12.3807C8.16022 12.3379 8.06262 12.3179 7.96462 12.3225C6.08506 12.32 4.20549 12.3177 2.32593 12.3161V12.2839C3.94527 7.78064 8.4614 5.47096 13.1775 6.18064C13.1983 6.18441 13.2195 6.18217 13.2391 6.17416C13.2585 6.16615 13.2752 6.15273 13.2872 6.13547L14.171 4.61935C14.1793 4.60613 14.1908 4.59513 14.2043 4.58726C14.2177 4.5794 14.2329 4.57491 14.2484 4.57419H16.8614ZM17.3969 12.1613L11.7066 8.91611C11.6936 8.90884 11.6784 8.90678 11.664 8.91039C11.6495 8.91399 11.6372 8.92296 11.6291 8.93547L10.384 11.0645C10.3646 11.0903 10.3775 11.1291 10.4034 11.1419L16.0937 14.3935C16.1259 14.4064 16.1581 14.3935 16.1711 14.3678L17.4162 12.2387C17.4236 12.2258 17.4255 12.2105 17.4219 12.1961C17.4184 12.1818 17.4094 12.1693 17.3969 12.1613ZM9.59043 19.4193H14.7389C14.7447 19.4195 14.7505 19.4177 14.7551 19.4142C14.7598 19.4106 14.7631 19.4056 14.7646 19.3999C14.7652 19.3949 14.7645 19.3897 14.7621 19.3852C14.7598 19.3805 14.7562 19.3767 14.7517 19.3742L7.01624 14.9032C7.01285 14.9023 7.0093 14.902 7.00581 14.9025C7.00231 14.9029 6.99896 14.9041 6.99593 14.9059C6.9929 14.9077 6.99028 14.9101 6.98824 14.913C6.98618 14.9159 6.98473 14.9192 6.98399 14.9226V14.9419L9.56463 19.4064C9.56661 19.41 9.56941 19.413 9.57277 19.4151C9.57613 19.4174 9.57997 19.4189 9.58399 19.4193H9.59043Z" fill="#4D75E4"/>
</svg>

<svg xmlns="http://www.w3.org/2000/svg" width="24" height="24" fill="none" viewBox="0 0 24 24">
    <path fill="#4D75E4" d="M16.861 4.574q.008 0 .015-.002l.011-.01v-.027L15.423 2.04v-.026L15.436 2h.012c.542.032 1 .22 1.355.561.168.149.387.471.671.962q.308.52.62 1.038a2.143 2.143 0 0 1 3.58.994l-.006.02a.06.06 0 0 1-.052.019q-1.438.004-2.877 0a.05.05 0 0 0-.02.064l1.304 2.22a.08.08 0 0 1 0 .077L19.1 9.529a.064.064 0 0 0 .007.084 9.59 9.59 0 0 1-.149 12.368q-.037.037-.064 0l-2.775-4.84a.3.3 0 0 0-.11-.115 135 135 0 0 1-3.864-2.316 135 135 0 0 0-3.896-2.33.6.6 0 0 0-.284-.058l-5.64-.006v-.032C3.946 7.78 8.462 5.47 13.179 6.18a.11.11 0 0 0 .11-.046l.883-1.516a.1.1 0 0 1 .077-.045zm.536 7.587-5.69-3.245a.06.06 0 0 0-.078.02l-1.245 2.129c-.02.025-.007.064.02.077l5.69 3.252c.032.012.064 0 .077-.026l1.245-2.13a.06.06 0 0 0-.02-.077M9.59 19.42h5.149a.025.025 0 0 0 .026-.02q0-.007-.003-.014l-.01-.01-7.736-4.472a.03.03 0 0 0-.028.01l-.004.01v.019l2.58 4.464.009.01.011.003z"/>
</svg>
